!!!!SEGMENT: pl-wtm--r-2291_troschel-wilhelm--polka.krn
!!!cenid: 18xx:2253
!!!COM: Troschel, Wilhelm
!!!COM-rismID: pe30024099
!!!CDT: 1823/08/23-1887/03/02
!!!CNT: Polish
!!!OTL: Polka
!!!PDT:
!!!AGN: Secular; Polka
!!!YEC: Copyright 2022 Narodowy Instytut Fryderyka Chopina (https://polishscores.org)
!!!YEM: License CC-BY-4.0 (https://creativecommons.org/licenses/by/4.0)
!!!SMS-siglum: PL-Wtm
!!!SMS-shelfmark: R 2291
!!!SMS-shelfwork: W
!!!SMS-variant:
!!!SMS-altvar:
!!!NIFC-rismSourceID: 1001113823
!!!NIFC-rismChildID: 1001113823
!!!NIFC-islandoraID: pl-wtm:30166
!!!URL-pdf-islandora: https://repozytorium.nifc.pl/islandora/object/pl-wtm%3A30166/datastream/PDF/view
!!!URL-scan: https://polish.musicsources.pl/pl/lokalizacje/galeria/rekopisy/6602 @EN{Scan on Polish Music Sources Website} @PL{Skany w portalu Dziedzictwo Muzyki Polskiej w otwartym dostępie}
!!!IIIF:
!!!ONB-nifc:
!!!AIN: 1 empty
!!!key:
**kern	**kern	**dynam
*part1	*part1	*
*staff2	*staff1	*
*Iempty	*Iforte	*
*	*I"[fp]	*
*clefF4	*clefG2	*
*k[f#c#g#d#]	*k[f#c#g#d#]	*
*E:	*E:	*
*M2/4	*M2/4	*
*>[A,B,B1,B,B2,C,C1,C,C2,D,E,E1,E,E2,A,B,B1,B,B2,C,C1,C,C2,D,E,E1,E,E2,F]	*>[A,B,B1,B,B2,C,C1,C,C2,D,E,E1,E,E2,A,B,B1,B,B2,C,C1,C,C2,D,E,E1,E,E2,F]	*
=1	=1	=1
*>A	*>A	*
*all\right	*all\right	*
!LO:TX:b:t=segno	!LO:TX:a:t=segno	!
!	!	!LO:DY:b=2:rj
4EE'\ 4BB	4E<'>/ 4G#<	pp
4EE'\ 4BB	4E<'>/ 4G#<	.
=2	=2	=2
!	!	!LO:DY:b=2:rj
8EE'\L 8BB	8E<'>/L 8G#<	p
8EE'\J 8BB	8E<'>/J 8G#<	.
4EE'\ 4BB	4E<'>/ 4G#<	.
=3	=3	=3
!	!	!LO:DY:b=2:rj
8EE\L 8BB	8E<'>/L 8G#<	f
16EE\L 16BB	16E<'>/L 16G#<	.
16EE\JJ 16BB	16E<'>/JJ 16G#<	.
8EE\L 8BB	8E<'>/L 8G#<	.
8EE\J 8BB	8E<'>/J 8G#<	.
=4	=4	=4
!	!	!LO:DY:b=2:rj
8EE\L 8BB	8E<'>/L 8G#<	ff
8EE\ 8BB	8E<'>/ 8G#<	.
8EE\ 8BB	8E<'>/ 8G#<	.
8EE\J 8BB	8E<'>/J 8G#<	.
=5!|:	=5!|:	=5!|:
*>B	*>B	*
!	!	!LO:DY:t=p.
.	16qqcc#/LL	p
!	!LO:TX:a:i:t=sempre stacato.	!
.	16qqdd#/JJ	.
*ped	*	*
8BB'\L	8cc#'\L	.
8F#'\ 8A 8d#	8b'\	.
8BB'\	8aa'\	.
8F#'\J 8A 8d#	8dd#'\J	.
=6	=6	=6
*Xped	*	*
.	16qqee/LL	.
!LO:TX:t=P:problem=mixed beam	!	!
.	16qqff#/JJ	.
8EE/L	8ee'\L	.
8G#\ 8B 8e	8g#'\	.
8E\	8cc#'\	.
8G#\J 8B 8e	8b'\J	.
=7	=7	=7
8AA\L	8a'\L	.
8A\ 8c# 8e	16cc#'\L	.
.	16dd#'\JJ	.
8AA\	8ee'\L	.
8A\J 8c# 8e	8ff#'\J	.
=8	=8	=8
.	16qqee/LL	.
!LO:TX:t=P:problem=mixed beam	!	!
.	16qqff#/JJ	.
8EE/L	8gg#'\L	.
8G#\ 8B 8e	16ff#'\L	.
.	16ee'\JJ	.
8E\	8dd#'\L	.
8G#\J 8B 8e	8cc#'\J	.
!!LO:LB:g=original
=9	=9	=9
.	16qqcc#/LL	.
.	16qqdd#/JJ	.
8BB\L	8cc#'\L	.
8F#\ 8A 8d#	8b'\	.
8BB\	8aa'\	.
8F#\J 8A 8d#	8dd#'\J	.
=10	=10	=10
.	16qqee/LL	.
.	16qqff#/JJ	.
8EE\L	8ee'\L	.
8G#\ 8B 8e	8g#'\	.
8E\	8cc#'\	.
8G#\J 8B 8e	8b'\J	.
=11	=11	=11
8FF#\L	8f#'\L	.
8F#\ 8A#X 8c# 8e	16ee'\L	.
.	16dd#'\JJ	.
8FF#\	8cc#'\L	.
!	!	!LO:DY:rj
8F#^^\J 8A# 8c# 8e	8f#^^\J 8a#X 8cc# 8ff#	f
=12	=12	=12
8BB\L	8f#'\L	.
8F#\ 8B 8d#	16dd#'\L	.
.	16cc#'\JJ	.
8BB\	8b'\L	.
8F#^^\J 8B 8d#	8f#^^\J 8b 8dd# 8ff#	.
=13	=13	=13
.	16qqcc#/LL	.
.	16qqdd#/JJ	.
8BB\L	8cc#'\L	.
8F#\ 8A 8d#	8b'\	.
8BB\	8aa'\	.
8F#\J 8A 8d#	8dd#'\J	.
=14	=14	=14
.	16qqee/LL	.
.	16qqff#/JJ	.
8EE\L	8ee'\L	.
8G#\ 8B 8e	8g#'\	.
8E\	8cc#'\	.
8G#\J 8B 8e	8b'\J	.
=15	=15	=15
8AA\L	8a'\L	.
8A\ 8c# 8e	16cc#'\L	.
.	16dd#'\JJ	.
8AA\	8ee'\L	.
8A\J 8c# 8e	8ff#'\J	.
!!LO:LB:g=original
=16	=16	=16
.	16qqee/LL	.
!LO:TX:t=P:problem=mixed beam	!	!
.	16qqff#/JJ	.
8EE/L	8gg#'\L	.
8G#\ 8B 8e	16ff#'\L	.
.	16ee'\JJ	.
8E\	8dd#'\L	.
8G#\J 8B 8e	8cc#'\J	.
=17	=17	=17
.	16qqcc#/LL	.
.	16qqdd#/JJ	.
8BB\L	8cc#'\L	.
8F#\ 8A 8d#	8b'\	.
8BB\	8aa'\	.
8F#\J 8A 8d#	8dd#'\J	.
=18	=18	=18
!LO:TX:t=Imo	!LO:TX:t=Imo	!
*>B1	*>B1	*
.	16qqee/LL	.
!LO:TX:t=P:problem=mixed beam	!	!
.	16qqff#/JJ	.
8EE/L	8ee'\L	.
8G#\ 8B 8e	8g#'\	.
8E\	8cc#'\	.
8G#\J 8B 8e	8b'\J	.
=19	=19	=19
.	16qqggn/LL	.
.	16qqaa/JJ	.
8Cn\L	8ggn'^^\L	f
8Gn\ 8cn 8e	8ee'\	.
.	16qqgg/LL	.
.	16qqaa/JJ	.
8C\	8gg'^^\	.
8G\J 8c 8e	8ee'\J	.
=20	=20	=20
.	16qqggn/LL	.
.	16qqaa/JJ	.
8GGn\L	8ggn'^^\L	.
8Gn\ 8B 8dn	8ddn'\	.
.	16qqgg/LL	.
.	16qqaa/JJ	.
8GG\	8gg'^^\	.
8G\J 8B 8d	8dd'\J	.
=21	=21	=21
.	16qqee/LL	.
.	16qqffn/JJ	.
8AA\L	8ee'^^\L	p
8E\ 8A 8cn	8ccn'\	.
.	16qqee/LL	.
.	16qqff/JJ	.
8AA\	8ee'^^\	.
8E\J 8A 8c	8cc'\J	.
=22	=22	=22
.	16qqee/LL	.
.	16qqffn/JJ	.
!LO:TX:t=P:problem=mixed beam	!	!
8EE/L	8ee'^^\L	.
8E\ 8G# 8B	8b'\	.
.	16qqee/LL	.
.	16qqff/JJ	.
8EE/	8ee'^^\	.
8E\J 8G# 8B	8b'\J	.
!!LO:LB:g=original
=23	=23	=23
.	16qqee/LL	.
!	!	!LO:DY:t=pp.
.	16qqffn/JJ	pp
2r	8ee'^^\L	.
.	8b'\	.
.	16qqee/LL	>
.	16qqff/JJ	.
.	8ee'^^\	.
.	8b'\J	.
=24	=24	=24
.	16qqee/LL	.
.	16qqffn/JJ	.
2r	8ee'^^\L	.
.	8b'\	.
.	16qqee/LL	.
.	16qqff/JJ	.
.	8ee'^^\	.
.	8b'\J	]
=25:|!	=25:|!	=25:|!
!LO:TX:t=IIdo	!LO:TX:t=IIdo	!
*>B2	*>B2	*
8E\L	8ee'\L	f
8G#\ 8B 8e	16ee'\L	.
.	16ff#'\JJ	.
.	16qqggn/LL	.
.	16qqaa/JJ	.
8Cn\	8gg'\L	.
8E\J 8Gn 8B-X	8ee'\J	.
=26	=26	=26
.	16qqgg#X/LL	.
.	16qqaa/JJ	.
8BBn\L	8gg#'\L	.
8E\ 8G#X 8B	8ee'\	.
8BB\	8ccc#'\	.
8F#\J 8A 8d#	8bb'\J	.
=27	=27	=27
8E\L 8G# 8B 8e	8ee'\L	.
8E\	8b'\ 8gg#	.
8EE\J	8g#'\J 8ee	.
8r	8r	.
=28!|:	=28!|:	=28!|:
*>C	*>C	*
*ped	*	*
!	!	!LO:DY:rj
8CC#\L 8C#	(8g#\L 8cc# 8ee 8gg#	ff
8E\ 8G# 8c#	16e\L 16g# 16cc#	.
.	16b#X\JJ	.
8C#\	8e\L 8g# 8cc#	.
8E\J 8G# 8c#	8cc#\J) 8ee 8gg# 8ccc#	.
*Xped	*	*
=29	=29	=29
*	*^	*
4DD#^^</ 4D#	8bb/L	4b\ 4ff#	.
.	8aa/	.	.
8EE/L 8E	8gg#/	8b\L 8ee	.
8FF#/J 8F#	8ff#/J	8a\J 8dd#	.
!!LO:LB:g=original
=30	=30	=30	=30
8GG#\L	8ee/L	4g#\ 4cc#	.
8G#\ 8c# 8e	16dd#/L	.	.
.	16cc#/JJ	.	.
8GG#\	8dd#/L	4g#\ 4b#X	.
8G#\J 8B#X 8d# 8f#	8gg#/J	.	.
*	*v	*v	*
=31	=31	=31
8DD#\L 8D#	(8f##X\L 8dd#	.
8D#\ 8F##X 8A#X 8c#	16a#X\L 16ee#X	.
.	16f##\JJ 16dd#	.
8GG#\	8d#/L) 8dd#	.
8D#\J 8G# 8B#X	8g#/J	.
=32	=32	=32
8CC#\L 8C#	(8g#\L 8cc# 8ee 8gg#	.
8E\ 8G# 8c#	16e\L 16g# 16cc#	.
.	16b#X\JJ	.
8C#\	8e\L 8g# 8cc#	.
8E\J 8G# 8c#	8cc#\J) 8ee 8gg# 8ccc#	.
=33	=33	=33
!LO:TX:t=Imo	!LO:TX:t=Imo	!
*>C1	*>C1	*
*	*^	*
4DD#/ 4D#	8bb/L	4b\ 4ff#	.
.	8aa/	.	<
8EE/L 8E	8gg#/	8b\L 8ee	.
8FF#/J 8F#	8aa/J	8b\J 8ee	[[
*	*v	*v	*
=34	=34	=34
8GG#\L 8G#	8b\L 8ee 8bb	.
16C#\L 16c#	16g#\L 16ee	.
16Cn\JJ 16cn	16a#X\JJ 16ff#	.
8BB/L 8B	8b\L 8gg#	.
8BBB/J 8BB	8an\J 8dd# 8ff#	.
=35	=35	=35
8EE/ 8E	8g#/ 8b 8ee	.
8r	8r	.
4DD#^^</ 4D#	4g#^^\ 4b#X 4ff# 4gg#	fff
=36:|!	=36:|!	=36:|!
!LO:TX:t=IIdo	!LO:TX:t=IIdo	!
*>C2	*>C2	*
*	*^	*
4DD#/ 4D#	8bb/L	4b\ 4ff#	.
.	8aa/	.	.
8EE/L 8E	8gg#/	8b\L 8ee	.
8FF#/J 8F#	8ff#/J	8a\J 8dd#	.
!!LO:PB:g=original
=37	=37	=37	=37
!LO:TX:t=P:problem=mixed beam	!LO:TX:t=P:problem=brak zakończenia II volty na nowej stronie	!	!
8GG#/L	8ee/L	4g#\ 4cc#	.
8G#\ 8c# 8e	16dd#/L	.	.
.	16cc#/JJ	.	.
8GG#/	8dd#/L	4g#\ 4b#X	.
8G#\J 8B#X 8d# 8f#	8gg#/J	.	.
*	*v	*v	*
=38	=38	=38
*ped	*	*
8c#'\ 8e	8g#'/ 8cc#	.
!	!	!LO:DY:rj
16CC#/LL 16C#	16cc#\LL 16ccc#	p
16CC#/JJ 16C#	16cc#\JJ 16ccc#	.
8CC#/L 8C#	8cc#\L 8ccc#	<
8CC#/J 8C#	8cc#\J 8ccc#	.
=39	=39	=39
8CC#/L 8C#	8cc#\L 8ccc#	.
8CC#/ 8C#	8cc#\ 8ccc#	.
8CC#/ 8C#	8cc#\ 8ccc#	[ f
8CCn/J 8Cn	8ccn\J 8cccn	.
*Xped	*	*
==40	==40	==40
*>D	*>D	*
.	16qqcc#/LL	.
.	16qqdd#/JJ	p
*ped	*	*
8BB'\L	8cc#'\L	.
8F#'\ 8A 8d#	8b'\	.
8BB'\	8aa'\	.
8F#'\J 8A 8d#	8dd#'\J	.
=41	=41	=41
.	16qqee/LL	.
!LO:TX:t=P:problem=mixed beam	!	!
.	16qqff#/JJ	.
8EE'/L	8ee'\L	.
8G#'\ 8B 8e	8g#'\	.
8E'\	8cc#'\	.
8G#'\J 8B 8e	8b'\J	.
=42	=42	=42
8AA'\L	8a'\L	.
8A'\ 8c# 8e	16cc#'\L	.
.	16dd#'\JJ	.
8AA'\	8ee'\L	.
8A'\J 8c# 8e	8ff#'\J	.
=43	=43	=43
.	16qqee/LL	.
.	16qqff#/JJ	.
8EE'\L	8gg#'\L	.
8G#'\ 8B 8e	16ff#'\L	.
.	16ee'\JJ	.
8E'\	8dd#'\L	.
8G#'\J 8B 8e	8cc#'\J	.
!!LO:LB:g=original
=44	=44	=44
.	16qqcc#/LL	.
.	16qqdd#/JJ	.
8BB'\L	8cc#'\L	.
8F#'\ 8A 8d#	8b'\	.
8BB'\	8aa'\	.
8F#'\J 8A 8d#	8dd#'\J	.
=45	=45	=45
.	16qqee/LL	.
!LO:TX:t=P:problem=mixed beam	!	!
.	16qqff#/JJ	.
8EE'/L	8ee'\L	.
8G#'\ 8B 8e	8g#'\	.
8E'\	8cc#'\	.
8G#'\J 8B 8e	8b'\J	.
=46	=46	=46
8FF#'\L	8a'\L	.
8F#'\ 8A#X 8c# 8e	16ee'\L	.
.	16dd#'\JJ	.
8FF#'\	8cc#'\L	.
8F#'^^<\J 8A# 8c# 8e	8f#^^\J 8a#X 8cc# 8ff#	.
=47	=47	=47
8BB'\L	8f#'\L	.
8F#'\ 8B 8d#	16dd#'\L	.
.	16cc#'\JJ	.
8BB'\	8b'\L	.
8F#'^^<\J 8B 8d#	8f#^^\J 8b 8dd# 8ff#	.
=48	=48	=48
.	16qqcc#/LL	.
.	16qqdd#/JJ	.
8BB'\L	8cc#'\L	.
8F#'\ 8A 8d#	8b'\	.
8BB'\	8aa'\	.
8F#'\J 8A 8d#	8dd#'\J	.
=49	=49	=49
.	16qqee/LL	.
!LO:TX:t=P:problem=mixed beam	!	!
.	16qqff#/JJ	.
8EE'/L	8ee'\L	.
8G#'\ 8B 8e	8g#'\	.
8E'\	8cc#'\	.
8G#'\J 8B 8e	8b'\J	.
=50	=50	=50
!LO:TX:t=P:problem=mixed beam	!	!
8AA'/L	8a'\L	.
8A'\ 8c# 8e	16cc#'\L	.
.	16dd#'\JJ	.
8AA'/	8ee'\L	.
8A'\J 8c# 8e	8ff#'\J	.
=51	=51	=51
.	16qqee/LL	.
!LO:TX:t=P:problem=mixed beam	!	!
.	16qqff#/JJ	.
8EE'/L	8gg#'\L	.
8G#'\ 8B 8e	16ff#'\L	.
.	16ee'\JJ	.
8E'\	8dd#'\L	.
8G#'\J 8B 8e	8cc#'\J	.
!!LO:LB:g=original
=52	=52	=52
.	16qqcc#/LL	.
.	16qqdd#/JJ	.
8BB\L	8cc#'\L	.
8F#\ 8A 8d#	8b'\	.
8BB\	8aa'\	.
8F#\J 8A 8d#	8dd#'\J	.
=53	=53	=53
8E\L	8ee'\L	.
8G#\ 8B 8e	16ee'\L	.
.	16ff#'\JJ	.
.	16qqggn/LL	.
.	16qqaa/JJ	.
8Cn\	8gg'\L	.
8E\J 8Gn 8B-X	8ee'\J	.
=54	=54	=54
.	16qqgg#X/LL	.
.	16qqaa/JJ	.
8BBn\L	8gg#'\L	.
8E\ 8G#X 8B	8ee'\	.
8BB\	8ccc#'\	.
8F#\J 8A 8B 8d#	8bb'\J	.
=55	=55	=55
8E\L 8G# 8B 8e	8ee'\L	.
8E\	8b'\ 8gg#	.
8EE\J	8g#'\J 8ee	.
8r	8r	.
=56!|:	=56!|:	=56!|:
*>E	*>E	*
*k[f#c#g#dn]	*k[f#c#g#dn]	*
*ped	*	*
!	!LO:TX:b:t=dolce	!
!LO:TX:t=P:problem=mixed beam	!LO:TX:a:t=Trio	!
8AA/L	(16aa\LL 16ccc#	.
.	16gg#\ 16bb#X	.
8A\ 8c# 8e	16aa\ 16ccc#	.
.	16gg#\JJ 16bb#	.
8AA/	16aa\LL 16ccc#	.
.	16gg#\ 16bb#	.
8A\J 8c# 8e	16aa\ 16ccc#	.
.	16gg#\JJ) 16bb#	.
*Xped	*	*
=57	=57	=57
!LO:TX:t=P:problem=mixed beam	!	!
8DDnX/L	8aa'\L 8ccc#	.
8F#\ 8A 8d	8ff#'\ 8aa	.
8D\	8dd'\ 8ff#	.
8F#\J 8A 8d	8a'\J 8dd	.
=58	=58	=58
!LO:TX:t=P:problem=mixed beam	!	!
8AA/L	(16cc#\LL 16ee	.
.	16b#X\ 16dd#X	.
8A\ 8c# 8e	16cc#\ 16ee	.
.	16b#\JJ 16dd#	.
8AA/	16cc#\LL 16ee	.
.	16b#\ 16dd#	.
8A\J 8c# 8e	16cc#\ 16ee	.
.	16b#\JJ) 16dd#	.
!!LO:LB:g=original
=59	=59	=59
!LO:TX:t=P:problem=mixed beam	!	!
8AA/L	8cc#'\L 8ee	.
8A\ 8c# 8e	8ee'\ 8aa	.
8AA/	8aa'\ 8ccc#	.
8A\J 8c# 8e	8ccc#'\J 8fff#	.
=60	=60	=60
8EE\L	(16ccc#\LL 16eee	.
.	16bb\ 16ddd	.
8G#\ 8B 8d	16ccc#\ 16eee	.
.	16bb\JJ 16ddd	.
8EE\	16ccc#\LL 16eee	.
.	16bb\ 16ddd	.
8G#\J 8B 8d	16ccc#\) 16eee	.
.	16bb\JJ 16ddd	.
=61	=61	=61
!LO:TX:t=P:problem=mixed beam	!	!
8EE/L	8bb'\L 8ddd	.
8E\ 8G# 8B 8d	8ee'\ 8gg#	.
8EE/	8gg#'\ 8bb	.
8E\J 8G# 8B 8d	8ddd'\J 8fff#	.
=62	=62	=62
!LO:TX:t=P:problem=mixed beam	!	!
8AA/L	(16ddd\LL 16fff#	.
.	16ccc#\ 16eee	.
8A\ 8c# 8e	16ddd\ 16fff#	.
.	16ccc#\JJ 16eee	.
8AA/	16ddd\LL 16fff#	.
.	16ccc#\ 16eee	.
8A\J 8c# 8e	16ddd\) 16fff#	.
.	16ccc#\JJ 16eee	.
=63	=63	=63
8AA\L	8ccc#'\L 8eee	.
8A\ 8c# 8e	8cc#'\ 8ee	.
8AA\	8ee'\ 8aa	.
8E\J 8G# 8B#X	8gg#'\J 8bb#X	.
=64	=64	=64
!LO:TX:t=P:problem=mixed beam	!	!
8AA/L	(16aa\LL 16ccc#	.
.	16gg#\ 16bb#X	.
8A\ 8c# 8e	16aa\ 16ccc#	.
.	16gg#\JJ 16bb#	.
8AA/	16aa\LL 16ccc#	.
.	16gg#\ 16bb#	.
8A\J 8c# 8e	16aa\) 16ccc#	.
.	16gg#\JJ 16bb#	.
!!LO:LB:g=original
=65	=65	=65
!LO:TX:t=P:problem=mixed beam	!	!
8DD/L	8aa'\L 8ccc#	.
8F#\ 8A 8d	8ff#'\ 8aa	.
8D\	8dd'\ 8ff#	.
8F#\J 8A 8d	8a'\J 8dd	.
=66	=66	=66
!LO:TX:t=P:problem=mixed beam	!	!
8AA/L	(16cc#\LL 16ee	.
.	16b#X\ 16dd#X	.
8A\ 8c# 8e	16cc#\ 16ee	.
.	16b#\JJ 16dd#	.
8AA/	16cc#\LL 16ee	.
.	16b#\ 16dd#	.
8A\J 8c# 8e	16cc#\ 16ee	.
.	16b#\JJ) 16dd#	.
=67	=67	=67
!LO:TX:t=Imo	!LO:TX:t=Imo	!
*>E1	*>E1	*
8AA\L	8cc#'\L 8ee	.
8A\ 8c# 8e	8ee'\ 8aa	.
8AA\	8aa'\ 8ccc#	.
8F#\J 8A 8cn	8aa'\J 8ddd#X	<
=68	=68	=68
*ped	*	*
8BB\L	(16gg#\LL 16eee	.
.	16bb\ 16ddd#X	[
8G#\ 8B 8e	16gg#\ 16eee	.
.	16bb\JJ 16ddd#	.
8BB\	16gg#\LL 16eee	.
.	16bb\ 16ddd#	.
8G#\J 8B 8e	16gg#\) 16eee	.
.	16bb\JJ 16ddd#	.
=69	=69	=69
8BB\L	(16gg#\LL 16eee	.
.	16ddd#X\	.
8G#\ 8B 8e	16ccc#\)	>
.	16bb\JJ	.
*Xped	*	*
8BB\	(16dd#X\LL 16bb	.
.	16aa\	.
8A\J 8B 8d#X	16gg#\)	.
.	16ff#\JJ	]
=70	=70	=70
!	!	!LO:DY:b=2
8E/L 8B	8g#/L 8ee	f
*ped	*	*
16EE^/L 16E	16e^/L	.
16EE^/JJ 16E	16e^/JJ	.
8EE^/L 8E	8e^/L	.
8EE^/J 8E	8e^/J	.
=71	=71	=71
8EE^/L 8E	8e^/L	.
8CC#^/ 8C#	8c#sS</	.
8DDnX^/ 8DnX	8dn^/	.
8BBB^/J 8BB	8B^/J	.
!!LO:PB:g=original
=72:|!	=72:|!	=72:|!
!LO:TX:t=	!LO:TX:t=	!
*>E2	*>E2	*
!	!LO:TX:t=P:problem=brak II volty na nowej stronie	!
8AA\L	8cc#'\L 8ee	.
8E\ 8A 8c# 8e	8cc#'\ 8aa	.
8AA\	8ee'\ 8bb	.
8E\J 8G# 8B#X	8gg#'\J 8bb#X	.
=73	=73	=73
!LO:TX:t=P:problem=mixed beam	!	!
8EE/L	(16aa\LL 16ccc#	.
.	16gg#\ 16bb#X	.
8E\ 8A 8c#	16aa\ 16ccc#	.
.	16gg#\JJ) 16bb#	<
8EE/	8aa'\L 8ccc#	.
8E\J 8A 8c#	8ee^^\J 8eee	.
=74	=74	=74
*ped	*	*
!LO:TX:t=P:problem=mixed beam	!	!
8EE/L	(16dd\LL 16bb	[
.	16cc#\ 16aa#X	.
8E\ 8G# 8B 8d	16dd\ 16bb	.
.	16cc#\JJ) 16aa#	.
8EE/	8dd'\L 8bb	.
8E\J 8G# 8B 8d	8ee^^\J 8eee	.
*Xped	*	*
=75	=75	=75
8AA\L	(8aa\L	.
8A\ 8c# 8e	16eee\L	.
.	16ccc#\JJ)	.
8AA\	8aa'\L	.
8E\J 8A 8c#	(16cc#\L	.
.	16ee\JJ	.
=76	=76	=76
4AA/ 4C# 4E 4A	4a/)	.
!LO:TX:a:t=segno	!LO:TX:a:t=segno	!
4AAA^^</ 4AA	4r	.
==77	==77	==77
*>F	*>F	*
*k[f#c#g#d#]	*k[f#c#g#d#]	*
!	!LO:TX:a:u:i:t=Finale	!LO:DY:b=2:rj
!	!LO:TX:t=P:problem=brak powrotu znaków	!
4EE\ 4BB	4E</ 4G#<	pp
4EE\ 4BB	4E</ 4G#<	.
=78	=78	=78
!	!	!LO:DY:b=2:rj
8EE\L 8BB	8E</L 8G#<	p
8EE\J 8BB	8E</J 8G#<	.
4EE\ 4BB	4E</ 4G#<	.
!!LO:LB:g=original
=79	=79	=79
*k[f#c#g#d#]	*k[f#c#g#d#]	*
!	!	!LO:DY:b=2:rj
8EE\L 8BB	8E</L 8G#<	f
16EE\L 16BB	16E</L 16G#<	.
16EE\JJ 16BB	16E</JJ 16G#<	.
8EE\L 8BB	8E</L 8G#<	.
8EE\J 8BB	8E</J 8G#<	.
=80	=80	=80
!	!	!LO:DY:b=2:rj
8EE\L 8BB	8E</L 8G#<	ff
8EE\ 8BB	8E</ 8G#<	.
8EE\ 8BB	8E</ 8G#<	.
8EE\J 8BB	8E</J 8G#<	.
=81	=81	=81
!	!	!LO:DY:b=2:rj:t=p.
.	16qqcc#/LL	p
.	16qqdd#/JJ	.
*ped	*	*
8BB\L	8cc#'\L	.
8F#\ 8A 8d#	8b'\	.
8BB\	8aa'\	.
8F#\J 8A 8d#	8dd#'\J	.
=82	=82	=82
*Xped	*	*
.	16qqee/LL	.
!LO:TX:t=P:problem=mixed beam	!	!
.	16qqff#/JJ	.
8EE/L	8ee'\L	.
8G#\ 8B 8e	8g#'\	.
8E\	8cc#'\	.
8G#\J 8B 8e	8b'\J	.
=83	=83	=83
8AA\L	8a'\L	.
8A\ 8c# 8e	16cc#'\L	.
.	16dd#'\JJ	.
8AA\	8ee'\L	.
8A\J 8c# 8e	8ff#'\J	.
=84	=84	=84
.	16qqee/LL	.
!LO:TX:t=P:problem=mixed beam	!	!
.	16qqff#/JJ	.
8EE/L	8gg#'\L	.
8G#\ 8B 8e	16ff#'\L	.
.	16ee'\JJ	.
8E\	8dd#'\L	.
8G#\J 8B 8e	8cc#'\J	.
=85	=85	=85
.	16qqcc#/LL	.
.	16qqdd#/JJ	.
8BB\L	8cc#'\L	.
8F#\ 8A 8d#	8b'\	.
8BB\	8aa'\	.
8F#\J 8A 8d#	8dd#'\J	.
=86	=86	=86
.	16qqee/LL	.
!LO:TX:t=P:problem=mixed beam	!	!
.	16qqff#/JJ	.
8EE/L	8ee'\L	.
8G#\ 8B 8e	8g#'\	.
8E\	8cc#'\	.
8G#\J 8B 8e	8b'\J	.
!!LO:LB:g=original
=87	=87	=87
!LO:TX:t=P:problem=mixed beam	!	!
8FF#/L	8f#'\L	.
8F#\ 8A#X 8c# 8e	16ee'\L	.
.	16dd#'\JJ	.
8FF#/	8cc#'\L	.
8F#\J 8A# 8c# 8e	8f#^^\J 8a#X 8cc# 8ff#	.
=88	=88	=88
8BB\L	8f#'\L	.
8F#\ 8B 8d#	16dd#'\L	.
.	16cc#'\JJ	.
8BB\	8b'\L	.
8F#\J 8B 8d#	8f#^^\J 8b 8dd# 8ff#	.
=89	=89	=89
.	16qqcc#/LL	.
.	16qqdd#/JJ	.
8BB\L	8cc#'\L	.
8F#\ 8A 8d#	8b'\	.
8BB\	8aa'\	.
8F#\J 8A 8d#	8dd#'\J	.
=90	=90	=90
.	16qqee/LL	.
!LO:TX:t=P:problem=mixed beam	!	!
.	16qqff#/JJ	.
8EE/L	8ee'\L	.
8G#\ 8B 8e	8g#'\	.
8E\	8cc#'\	.
8G#\J 8B 8e	8b'\J	.
=91	=91	=91
8AA\L	8a'\L	.
8A\ 8c# 8e	16cc#'\L	.
.	16dd#'\JJ	.
8AA\	8ee'\L	.
8A\J 8c# 8e	8ff#'\J	.
=92	=92	=92
.	16qqee/LL	.
!LO:TX:t=P:problem=mixed beam	!	!
.	16qqff#/JJ	.
8EE/L	8gg#'\L	.
8G#\ 8B 8e	16ff#'\L	.
.	16ee'\JJ	.
8E\	8dd#'\L	.
8G#\J 8B 8e	8cc#'\J	.
=93	=93	=93
.	16qqcc#/LL	.
.	16qqdd#/JJ	.
8BB\L	8cc#'\L	.
8F#\ 8A 8d#	8b'\	.
8BB\	8aa'\	.
8F#\J 8A 8d#	8dd#'\J	<
=94	=94	=94
8E\L	8ee'\L	.
8G#\ 8B 8e	16ee'\L	[
.	16ff#'\JJ	.
.	16qqggn/LL	.
.	16qqaa/JJ	.
8Cn\	8ggn'\L	.
8E\J 8Gn 8B-X	8ee'\J	.
!!LO:LB:g=original
=95	=95	=95
.	16qqgg#/LL	.
.	16qqaa/JJ	.
8BB\L	8gg#'\L	.
8E\ 8G# 8B	8ee'\	.
8BB\	8ccc#'\	.
8F#\J 8A 8B 8d#	8bb'\J	.
=96	=96	=96
8E\L	4ee\	.
8G#\ 8B 8e	.	.
8Dn\	(16ee\LL	p
.	16ff#\	.
8E\J 8G# 8B	16ee\	.
.	16g#\JJ)	.
=97	=97	=97
8C#\L	(16ee\LL	<
.	16ff#\	.
8E\ 8A	16ee\)	.
.	16a\JJ	.
8Cn\	(16ggn\LL	[
!	!LO:TX:b:i:t=cres. cen. do:ext=s:problem=dynamics with extention lines	!LO:HP:t=cres. cen. do
.	16aa\	<
8E\J 8A#X	16gg\	.
.	16a#X\JJ)	.
=98	=98	=98
8BB\L	(16gg#X\LL	.
.	16aa\	.
8E\ 8G# 8B	16gg#\	.
.	16b\JJ	.
8BB\	16bb\LL	.
.	16ccc#\	.
8E\J 8G# 8B	16bb\)	.
.	16ee\JJ	.
=99	=99	=99
8BB\L	(16ccc#\LL	.
.	16ddd#\	.
8F#\ 8A 8c#	16ccc#\	.
.	16ff#\JJ	[
8BB\	16ddd#\LL	.
.	16eee\	.
8F#\J 8A 8B 8d#	16ddd#\	.
.	16ff#\JJ)	.
=100	=100	=100
8E\L	4eee\	f
8G#\ 8B 8e	.	.
*	*8va	*
!	!	!LO:DY:t=p.
8Dn\	(16eee\LL	p
.	16fff#\	.
8E\J 8G# 8B	16eee\	.
.	16gg#\JJ)	.
=101	=101	=101
8C#\L	(16eee\LL	.
.	16fff#\	.
8E\ 8A	16eee\	.
!	!LO:TX:b:i:t=cres_cen_do:ext=ud:problem=dynamics with extention lines	!LO:HP:t=cres_cen_do
.	16aa\JJ	<
8Cn\	16gggn\LL	.
.	16aaa\	.
8E\J 8A#X	16ggg\	.
.	16aa#X\JJ)	.
!!LO:LB:g=original
=102	=102	=102
8BB\L	(16ggg#X\LL	.
.	16aaa\	.
8E\ 8G# 8B	16ggg#\	.
.	16bb\JJ	.
8BB\	16bbb\LL	.
.	16cccc#\)	.
8E\J 8G# 8B	16bbb\	.
.	16eee\JJ	.
=103	=103	=103
8BB\Lyy	(16cccc#\LL	.
.	16dddd#\	.
8F#\ 8A 8c#	16cccc#\	.
.	16fff#\JJ	.
8BB\	16dddd#\LL	.
.	16eeee\	.
8F#\J 8A 8B 8d#	16dddd#\	.
.	16fff#\JJ)	[[
=104	=104	=104
!	!	!LO:DY:rj
4.E\ 4.G# 4.B 4.e	8eeee\L	f
*	*X8va	*
!	!LO:TX:a:t=loco.	!
.	16ee\L 16gg# 16eee	.
.	16ee\JJ 16gg# 16eee	.
.	8ee\L 8gg# 8eee	ff
8BB\ 8B	8ee\J 8gg# 8eee	.
*ped	*	*
=105	=105	=105
8GG#\L 8G#	8ee\L 8gg# 8eee	.
8C#\ 8c#	8ee\ 8gg# 8eee	.
8BB\ 8B	8ee\ 8gg# 8eee	.
8GG#\J 8G#	8ee\J 8gg# 8eee	.
=106	=106	=106
4EE/ 4E	4ee\ 4gg# 4eee	.
8.r	8.r	.
16E\ 16B 16e	16g#/ 16b 16ee 16gg#	.
=107	=107	=107
4E\ 4B 4e	4g#/ 4b 4ee 4gg#	.
8.r	8.r	.
16EE/ 16E	16e/	.
=108	=108	=108
4EE;</ 4E	4e;>/	.
*Xped	*	*
4r	4r	.
!!LO:PB:g=original
==	==	==
*-	*-	*-
!!!system-decoration: {(s1,s2)}
!!!RDF**kern: < = below
!!!RDF**kern: > = above
!!!ENC: Marta Chmielewska
!!!END: 2021-06-07
!!!ENC: Berenika Jozajtis
!!!END: 2021-05-24
